images/Garlic.svg

<?xml version="1.0" encoding="UTF-8"?>
<svg width="49px" height="45px" viewBox="0 0 49 45" version="1.1" xmlns="http://www.w3.org/2000/svg" xmlns:xlink="http://www.w3.org/1999/xlink">
    <!-- Generator: Sketch 42 (36781) - http://www.bohemiancoding.com/sketch -->
    <title>Garlic</title>
    <desc>Created with Sketch.</desc>
    <defs>
        <path d="M19,39.0909091 C25.0715009,38.3090909 28.0196778,37.9785506 31.6666667,36.7454545 C36.5865439,35.0819778 38,28.8455088 38,23.8454545 C34.3809524,14.0727273 34.3809524,18.7636364 20.8095238,7.03636364 C19,4.69090909 21.7142857,0.781818182 20.8095238,0.781818182 C19.9047619,0.781818182 19.9047619,-2.17603713e-14 19,1.56363636 C18.0952381,3.12727273 17.3552765,6.95391707 17.1904762,7.03636364 C11.7619048,14.8545455 1.80952381,14.8545455 0,23.8454545 C0,28.6170791 1.80952381,35.1818182 6.33333333,36.7454545 C10.8571429,38.3090909 12.6438133,38.3090909 19,39.0909091 Z" id="path-1"></path>
        <filter x="-50%" y="-50%" width="200%" height="200%" filterUnits="objectBoundingBox" id="filter-2">
            <feOffset dx="2" dy="2" in="SourceAlpha" result="shadowOffsetOuter1"></feOffset>
            <feColorMatrix values="0 0 0 0 0.980392157   0 0 0 0 0.964705882   0 0 0 0 0.725490196  0 0 0 1 0" type="matrix" in="shadowOffsetOuter1"></feColorMatrix>
        </filter>
        <path d="M12.2469015,15.3513049 C18.4362996,15.3513049 23.4537981,11.1651673 23.4537981,6.00130491 C23.4537981,0.837442499 16.7121617,4.30130491 10.5227636,4.30130491 C4.33336554,4.30130491 1.04000497,0.837442499 1.04000497,6.00130491 C1.04000497,11.1651673 6.05750347,15.3513049 12.2469015,15.3513049 Z" id="path-3"></path>
        <mask id="mask-4" maskContentUnits="userSpaceOnUse" maskUnits="objectBoundingBox" x="0" y="0" width="22.4137931" height="12.1870387" fill="white">
            <use xlink:href="#path-3"></use>
        </mask>
    </defs>
    <g id="Page-1" stroke="none" stroke-width="1" fill="none" fill-rule="evenodd">
        <g id="Garlic">
            <g>
                <g id="Oval-2">
                    <use fill="black" fill-opacity="1" filter="url(#filter-2)" xlink:href="#path-1"></use>
                    <use fill="#FFFDE4" fill-rule="evenodd" xlink:href="#path-1"></use>
                </g>
                <path d="M26.4190476,36.1163839 C26.7147485,36.1812806 27.0167988,36.214826 27.3238095,36.214826 C30.9215502,36.214826 33.8380952,31.6081803 33.8380952,25.9255948 C33.8380952,20.2430093 30.9215502,15.6363636 27.3238095,15.6363636 C27.0167988,15.6363636 26.7147485,15.669909 26.4190476,15.7348057 C29.588551,16.4304085 32.0285714,20.7279289 32.0285714,25.9255948 C32.0285714,31.1232607 29.588551,35.4207811 26.4190476,36.1163839 Z" id="Combined-Shape" fill="#FFFFF8"></path>
                <path d="M10.1333333,36.1051639 C10.4290342,36.1774573 10.7310845,36.214826 11.0380952,36.214826 C14.6358359,36.214826 17.552381,31.0831324 17.552381,24.7528675 C17.552381,18.4226027 14.6358359,13.2909091 11.0380952,13.2909091 C10.7310845,13.2909091 10.4290342,13.3282778 10.1333333,13.4005712 C13.3028367,14.1754562 15.7428571,18.9627915 15.7428571,24.7528675 C15.7428571,30.5429436 13.3028367,35.3302789 10.1333333,36.1051639 Z" id="Combined-Shape-Copy-6" fill="#FFFFF8" transform="translate(13.842857, 24.752868) scale(-1, 1) translate(-13.842857, -24.752868) "></path>
                <path d="M19.9047619,36.1051639 C20.2004627,36.1774573 20.5025131,36.214826 20.8095238,36.214826 C24.4072645,36.214826 27.3238095,31.0831324 27.3238095,24.7528675 C27.3238095,18.4226027 24.4072645,13.2909091 20.8095238,13.2909091 C20.5025131,13.2909091 20.2004627,13.3282778 19.9047619,13.4005712 C23.0742653,14.1754562 25.5142857,18.9627915 25.5142857,24.7528675 C25.5142857,30.5429436 23.0742653,35.3302789 19.9047619,36.1051639 Z" id="Combined-Shape-Copy-5" fill="#FAF6B9"></path>
                <path d="M1.80952381,36.1163839 C2.04031471,36.1812806 2.2760613,36.214826 2.51567944,36.214826 C5.32367215,36.214826 7.6,31.6081803 7.6,25.9255948 C7.6,20.2430093 5.32367215,15.6363636 2.51567944,15.6363636 C2.2760613,15.6363636 2.04031471,15.669909 1.80952381,15.7348057 C4.28328256,16.4304085 6.18768873,20.7279289 6.18768873,25.9255948 C6.18768873,31.1232607 4.28328256,35.4207811 1.80952381,36.1163839 Z" id="Combined-Shape-Copy-7" fill="#FAF6B9" transform="translate(4.704762, 25.925595) scale(-1, 1) translate(-4.704762, -25.925595) "></path>
            </g>
            <g id="Clove" transform="translate(26.000000, 29.000000)">
                <use id="Oval-10" stroke="#FAF6B9" mask="url(#mask-4)" stroke-width="2" stroke-linecap="square" fill="#FFFDE4" transform="translate(12.246902, 9.257786) rotate(-12.000000) translate(-12.246902, -9.257786) " xlink:href="#path-3"></use>
                <path d="M5.83803255,10.2006563 C7.3815325,12.4946684 11.4734017,12.5570386 15.0575095,10.3174395 C17.3238276,8.90128681 18.851889,6.89918154 19.3189607,5.01338507 C18.3864704,6.38678383 16.9802324,7.73630048 15.2233145,8.83414463 C11.684101,11.0456907 7.85078976,11.5305028 5.83803255,10.2006563 Z" id="Combined-Shape" fill="#FFFEF7" transform="translate(12.578497, 8.486600) rotate(-9.000000) translate(-12.578497, -8.486600) "></path>
                <path d="M2.099878,11.6190596 C4.42931204,14.6539861 8.8911232,16.2007305 13.5138154,15.2181469 C19.5679603,13.9312987 23.6054675,8.79344164 22.5318401,3.74242201 C22.2387447,2.36351651 21.5878839,1.71801566 20.6732637,1.53443364 C20.7241573,1.69141837 20.769042,1.86054015 20.8077022,2.04242201 C21.8813295,7.09344164 17.8438224,12.2312987 11.7896775,13.5181469 C8.13418377,14.2951461 4.57929214,13.4905066 2.099878,11.6190596 Z" id="Combined-Shape" fill="#FAF6B9"></path>
            </g>
        </g>
    </g>
</svg>

<?xml version="1.0" encoding="UTF-8" standalone="no"?>
<svg
   xmlns:dc="http://purl.org/dc/elements/1.1/"
   xmlns:cc="http://creativecommons.org/ns#"
   xmlns:rdf="http://www.w3.org/1999/02/22-rdf-syntax-ns#"
   xmlns:svg="http://www.w3.org/2000/svg"
   xmlns="http://www.w3.org/2000/svg"
   xmlns:xlink="http://www.w3.org/1999/xlink"
   xmlns:sodipodi="http://sodipodi.sourceforge.net/DTD/sodipodi-0.dtd"
   xmlns:inkscape="http://www.inkscape.org/namespaces/inkscape"
   width="49px"
   height="45px"
   viewBox="0 0 49 45"
   version="1.1"
   id="svg4136"
   inkscape:version="0.91 r13725"
   sodipodi:docname="garlic.svg">
  <metadata
     id="metadata4174">
    <rdf:RDF>
      <cc:Work
         rdf:about="">
        <dc:format>image/svg+xml</dc:format>
        <dc:type
           rdf:resource="http://purl.org/dc/dcmitype/StillImage" />
      </cc:Work>
    </rdf:RDF>
  </metadata>
  <sodipodi:namedview
     pagecolor="#ffffff"
     bordercolor="#666666"
     borderopacity="1"
     objecttolerance="10"
     gridtolerance="10"
     guidetolerance="10"
     inkscape:pageopacity="0"
     inkscape:pageshadow="2"
     inkscape:window-width="1920"
     inkscape:window-height="1027"
     id="namedview4172"
     showgrid="false"
     inkscape:zoom="19.066667"
     inkscape:cx="16.474201"
     inkscape:cy="39.172848"
     inkscape:window-x="-8"
     inkscape:window-y="-8"
     inkscape:window-maximized="1"
     inkscape:current-layer="svg4136" />
  <!-- Generator: Sketch 42 (36781) - http://www.bohemiancoding.com/sketch -->
  <title
     id="title4138">garlic</title>
  <desc
     id="desc4140">Created with Sketch.</desc>
  <defs
     id="defs4142">
    <path
       d="M19,39.0909091 C25.0715009,38.3090909 28.0196778,37.9785506 31.6666667,36.7454545 C36.5865439,35.0819778 38,28.8455088 38,23.8454545 C34.3809524,14.0727273 34.3809524,18.7636364 20.8095238,7.03636364 C19,4.69090909 21.7142857,0.781818182 20.8095238,0.781818182 C19.9047619,0.781818182 19.9047619,-2.17603713e-14 19,1.56363636 C18.0952381,3.12727273 17.3552765,6.95391707 17.1904762,7.03636364 C11.7619048,14.8545455 1.80952381,14.8545455 0,23.8454545 C0,28.6170791 1.80952381,35.1818182 6.33333333,36.7454545 C10.8571429,38.3090909 12.6438133,38.3090909 19,39.0909091 Z"
       id="path-1" />
    <filter
       x="-50%"
       y="-50%"
       width="200%"
       height="200%"
       filterUnits="objectBoundingBox"
       id="filter-2">
      <feOffset
         dx="2"
         dy="2"
         in="SourceAlpha"
         result="shadowOffsetOuter1"
         id="feOffset4146" />
      <feColorMatrix
         values="0 0 0 0 0.980392157   0 0 0 0 0.964705882   0 0 0 0 0.725490196  0 0 0 1 0"
         type="matrix"
         in="shadowOffsetOuter1"
         id="feColorMatrix4148" />
    </filter>
    <path
       d="M12.2469015,15.3513049 C18.4362996,15.3513049 23.4537981,11.1651673 23.4537981,6.00130491 C23.4537981,0.837442499 16.7121617,4.30130491 10.5227636,4.30130491 C4.33336554,4.30130491 1.04000497,0.837442499 1.04000497,6.00130491 C1.04000497,11.1651673 6.05750347,15.3513049 12.2469015,15.3513049 Z"
       id="path-3" />
    <mask
       id="mask-4"
       maskContentUnits="userSpaceOnUse"
       maskUnits="objectBoundingBox"
       x="0"
       y="0"
       width="22.4137931"
       height="12.1870387"
       fill="white">
      <use
         xlink:href="#path-3"
         id="use4152" />
    </mask>
  </defs>
  <g
     id="Page-1"
     transform="matrix(0.77850999,0,0,0.73895387,2.3726458,3.9725067)"
     style="fill:none;fill-rule:evenodd;stroke:none;stroke-width:1">
    <g
       id="garlic">
      <g
         id="Garlic">
        <g
           id="Oval-2">
          <use
             xlink:href="#path-1"
             id="use4158"
             style="fill:#000000;fill-opacity:1;filter:url(#filter-2)"
             x="0"
             y="0"
             width="100%"
             height="100%" />
          <use
             xlink:href="#path-1"
             id="use4160"
             style="fill:#fffde4;fill-rule:evenodd"
             x="0"
             y="0"
             width="100%"
             height="100%" />
        </g>
        <path
           d="m 26.419048,36.116384 c 0.2957,0.0649 0.597751,0.09844 0.904761,0.09844 3.597741,0 6.514286,-4.606646 6.514286,-10.289231 0,-5.682586 -2.916545,-10.289231 -6.514286,-10.289231 -0.30701,0 -0.609061,0.03355 -0.904761,0.09844 3.169503,0.695602 5.609523,4.993123 5.609523,10.190789 0,5.197666 -2.44002,9.495186 -5.609523,10.190789 z"
           id="Combined-Shape"
           inkscape:connector-curvature="0"
           style="fill:#fffff8" />
        <path
           d="m 10.133333,36.105164 c 0.295701,0.07229 0.597752,0.109662 0.904762,0.109662 3.597741,0 6.514286,-5.131694 6.514286,-11.461959 0,-6.330264 -2.916545,-11.461958 -6.514286,-11.461958 -0.30701,0 -0.609061,0.03737 -0.904762,0.109662 3.169504,0.774885 5.609524,5.562221 5.609524,11.352296 0,5.790077 -2.44002,10.577412 -5.609524,11.352297 z"
           id="Combined-Shape-Copy-6"
           transform="matrix(-1,0,0,1,27.685714,0)"
           inkscape:connector-curvature="0"
           style="fill:#fffff8" />
        <path
           d="m 19.904762,36.105164 c 0.295701,0.07229 0.597751,0.109662 0.904762,0.109662 3.59774,0 6.514285,-5.131694 6.514285,-11.461959 0,-6.330264 -2.916545,-11.461958 -6.514285,-11.461958 -0.307011,0 -0.609061,0.03737 -0.904762,0.109662 3.169503,0.774885 5.609524,5.562221 5.609524,11.352296 0,5.790077 -2.440021,10.577412 -5.609524,11.352297 z"
           id="Combined-Shape-Copy-5"
           inkscape:connector-curvature="0"
           style="fill:#faf6b9" />
        <path
           d="m 1.8095238,36.116384 c 0.2307909,0.0649 0.4665375,0.09844 0.7061556,0.09844 C 5.3236721,36.214826 7.6,31.60818 7.6,25.925595 7.6,20.243009 5.3236721,15.636364 2.5156794,15.636364 c -0.2396181,0 -0.4753647,0.03355 -0.7061556,0.09844 2.4737588,0.695602 4.3781649,4.993123 4.3781649,10.190789 0,5.197666 -1.9044061,9.495186 -4.3781649,10.190789 z"
           id="Combined-Shape-Copy-7"
           transform="matrix(-1,0,0,1,9.409524,0)"
           inkscape:connector-curvature="0"
           style="fill:#faf6b9" />
      </g>
      <g
         id="Clove"
         transform="translate(26,29)">
        <use
           id="Oval-10"
           mask="url(#mask-4)"
           transform="matrix(0.9781476,-0.20791169,0.20791169,0.9781476,-1.6571777,2.7485789)"
           xlink:href="#path-3"
           style="fill:#fffde4;stroke:#faf6b9;stroke-width:2;stroke-linecap:square"
           x="0"
           y="0"
           width="100%"
           height="100%" />
        <path
           d="M 5.8380326,10.200656 C 7.3815325,12.494668 11.473402,12.557039 15.05751,10.31744 17.323828,8.9012868 18.851889,6.8991815 19.318961,5.0133851 18.38647,6.3867838 16.980232,7.7363005 15.223315,8.8341446 11.684101,11.045691 7.8507898,11.530503 5.8380326,10.200656 Z"
           id="path4168"
           transform="matrix(0.98768834,-0.15643447,0.15643447,0.98768834,-1.1727346,2.0721946)"
           inkscape:connector-curvature="0"
           style="fill:#fffef7" />
        <path
           d="m 2.099878,11.61906 c 2.329434,3.034926 6.7912452,4.58167 11.413937,3.599087 C 19.56796,13.931299 23.605467,8.7934416 22.53184,3.742422 22.238745,2.3635165 21.587884,1.7180157 20.673264,1.5344336 c 0.05089,0.1569848 0.09578,0.3261065 0.134438,0.5079884 1.073627,5.0510196 -2.96388,10.188877 -9.018024,11.475725 -3.6554942,0.776999 -7.2103859,-0.02764 -9.6898,-1.899087 z"
           id="path4170"
           inkscape:connector-curvature="0"
           style="fill:#faf6b9" />
      </g>
    </g>
  </g>
</svg>
